X: 9584
T: David's
R: hornpipe
M: 4/4
K: Gmajor
|:DF|G2 BG FADF|GBd^c d2 =cB|cea^g afec|Bdgf g2 cA|
GFGD (3EFG (3DEF|GB d^c dGBd|ceag fdef|gbaf g2:|
|:dc|(3Bcd ce d2 (3dBG|FA (3DEF G2 BG|FADc BdGB|AcEc BdGB|
cBce (3agf (3edc|BGBd (3gfe (3dcB|AFAd (3fed (3cBA|(3GBd (3gdB G2:|

